X:1
T:Title
%%score { ( 1 2 ) | ( 3 4 ) }
L:1/8
M:8/4
K:Bb
V:1 treble nm="Grand Piano"
V:2 treble 
V:3 bass 
V:4 bass 
V:1
 z8[Q:1/4=140] [DB]4 A2 G2 | d4 .c4 z8 | z8 .G4 z4 | .[G,CE]4 [F,B,D]4 [B,C]4 [F,A,F]4 | %4
[M:4/4] [F,B,D]8 | z4 A2 z2 |[M:8/4] d4 .c4 z8 | z8 .G4 z4 | .[G,CE]4 [F,B,D]4 [B,C]4 [F,A,F]4 | %9
[M:4/4] D8 | d4 F4 |[M:8/4] [G,C=E]4 [F,CF]4 [DB]4 A2 G2 | [CA]8 A4 B2 c2 | %13
 z4 [Dd]4[K:bass][K:treble] z8 |[M:4/4] [G,B,G]8 |] %15
V:2
 z8 z4 C4 | z2 C2 D2- [DB]2 [EA]4 B2 c2 | ^F8 [G,D]2- [G,DA]2 [DB]4 | x16 |[M:4/4] x8 | %5
 [DB]4 C2- [CG]2 |[M:8/4] z2 C2 D2- [DB]2 [EA]4 B2 c2 | ^F8 [G,D]2- [G,DA]2 [DB]4 | x16 | %9
[M:4/4] x8 | x8 |[M:8/4] x16 | x16 | [A,D^F]4 z2[K:bass] C,2[K:treble] B4 A2 G2 |[M:4/4] x8 |] %15
V:3
 z8 [G,,G,]4 [A,,^F,]4 | .[B,,G,B,]4 [G,,G,]4 [C,G,]4 [D,^F,D]2 [E,G,C]2 | %2
 [D,A,D]8 B,,2 A,,2 [G,,G,]4 | z2 A,2 D,2 E,2 F,4 F,,4 |[M:4/4] B,,8 | [G,,G,]4 [A,,^F,]4 | %6
[M:8/4] .[B,,G,B,]4 [G,,G,]4 [C,G,]4 [D,^F,D]2 [E,G,C]2 | [D,A,D]8 B,,2 A,,2 [G,,G,]4 | %8
 z2 A,2 D,2 E,2 F,4 F,,4 |[M:4/4] [B,,F,B,]8 | [B,,F,B,]4 [D,F,B,]4 | %11
[M:8/4] C,2 B,,2 A,,4 [G,,F,]4 [C,=E,C]4 | [F,,F,]8 [F,C]4 [E,G,C]4 | %13
 D,2 C,2 .[B,,G,]4 [D,G,D]4 C2 B,2 |[M:4/4] G,,8 |] %15
V:4
 x16 | x16 | x16 | C,4 z4 z8 |[M:4/4] x8 | x8 |[M:8/4] x16 | x16 | C,4 z4 z8 |[M:4/4] x8 | x8 | %11
[M:8/4] x16 | x16 | z8 z4 [D,^F,]4 |[M:4/4] x8 |] %15

